svg/24/stream-deck-key.svg

<svg width="24" height="24" viewBox="0 0 24 24" fill="currentColor" xmlns="http://www.w3.org/2000/svg"><path d="M7.75 15.5C7.33579 15.5 7 15.8358 7 16.25C7 16.6642 7.33579 17 7.75 17H16.25C16.6642 17 17 16.6642 17 16.25C17 15.8358 16.6642 15.5 16.25 15.5H7.75Z"/><path fill-rule="evenodd" clip-rule="evenodd" d="M3 7C3 4.79086 4.79086 3 7 3H17C19.2091 3 21 4.79086 21 7V17C21 19.2091 19.2091 21 17 21H7C4.79086 21 3 19.2091 3 17V7ZM7 4.5H17C18.3807 4.5 19.5 5.61929 19.5 7V17C19.5 18.3807 18.3807 19.5 17 19.5H7C5.61929 19.5 4.5 18.3807 4.5 17V7C4.5 5.61929 5.61929 4.5 7 4.5Z"/></svg>

<svg xmlns="http://www.w3.org/2000/svg" width="24" height="24" fill="currentColor" viewBox="0 0 24 24">
  <path d="M7.75 15.5a.75.75 0 0 0 0 1.5h8.5a.75.75 0 0 0 0-1.5h-8.5Z"/>
  <path fill-rule="evenodd" d="M3 7a4 4 0 0 1 4-4h10a4 4 0 0 1 4 4v10a4 4 0 0 1-4 4H7a4 4 0 0 1-4-4V7Zm4-2.5h10A2.5 2.5 0 0 1 19.5 7v10a2.5 2.5 0 0 1-2.5 2.5H7A2.5 2.5 0 0 1 4.5 17V7A2.5 2.5 0 0 1 7 4.5Z" clip-rule="evenodd"/>
</svg>
